other/busto.svg

<svg width="48" height="48" version="1.1" viewBox="0 0 48 48" xmlns="http://www.w3.org/2000/svg">
 <defs>
  <style>.a{fill:none;stroke:#fff;stroke-linecap:round;stroke-linejoin:round;}</style>
 </defs>
 <g stroke="#fff" stroke-linecap="round" stroke-linejoin="round">
  <path class="a" d="m40.5 5.5h-33a2 2 0 0 0-2 2v33a2 2 0 0 0 2 2h33a2 2 0 0 0 2-2v-33a2 2 0 0 0-2-2z"/>
  <g fill="none">
   <path d="m42.135 12.856h-29.494v20.663h20.76m6.1 0h2.9466" stroke-width="1px"/>
   <circle cx="36.373" cy="31.007" r="3.8898" stop-color="#000000" style="paint-order:markers fill stroke"/>
   <circle cx="36.373" cy="31.007" r="1.7782" stop-color="#000000" style="paint-order:markers fill stroke"/>
   <path d="m39.5 33.52h2.9473z" stop-color="#000000" style="paint-order:markers fill stroke"/>
   <path d="m19.777 33.52c0.73854 0.87265 1.8236 1.3762 2.9668 1.377 1.1425-0.0013 2.2267-0.50482 2.9648-1.377" stop-color="#000000" style="paint-order:markers fill stroke"/>
   <g stroke-width="1px">
    <path d="m12.64 12.856h-2.4683v5.7718s0.0891 1.6536 2.2843 1.6536"/>
    <path d="m28.001 12.856v20.592"/>
    <path d="m12.874 29.65h14.921"/>
    <path d="m28.254 24.177h14.06"/>
    <path d="m38.62 24.078v-10.888"/>
    <path d="m28.001 12.856h-2.4683v5.7718s0.0891 1.6536 2.2843 1.6536"/>
    <path d="m12.624 27.691h3.5972s1.9204 0.1211 1.9204 1.9204"/>
    <path d="m27.994 27.691h-3.5972s-1.9204 0.1211-1.9204 1.9204"/>
   </g>
  </g>
 </g>
</svg>

<svg xmlns="http://www.w3.org/2000/svg" viewBox="0 0 48 48"><defs><style>.a{fill:none;stroke:#fff;stroke-linecap:round;stroke-linejoin:round;}</style></defs><path class="a" d="M40.5,5.5H7.5a2,2,0,0,0-2,2v33a2,2,0,0,0,2,2h33a2,2,0,0,0,2-2V7.5A2,2,0,0,0,40.5,5.5Z"/><path class="a" d="M42.135,12.856H12.641V33.519h20.76m6.1,0h2.9466"/><circle class="a" cx="36.373" cy="31.007" r="3.8898"/><circle class="a" cx="36.373" cy="31.007" r="1.7782"/><path class="a" d="M39.5,33.52h0Z"/><path class="a" d="M19.777,33.52a3.8824,3.8824,0,0,0,5.9316,0"/><path class="a" d="M12.64,12.856H10.1717v5.7718s.0891,1.6536,2.2843,1.6536"/><path class="a" d="M28.001,12.856V33.448"/><path class="a" d="M12.874,29.65H27.795"/><path class="a" d="M28.254,24.177h14.06"/><path class="a" d="M38.62,24.078V13.19"/><path class="a" d="M28.001,12.856H25.5327v5.7718s.0891,1.6536,2.2843,1.6536"/><path class="a" d="M12.624,27.691h3.5972s1.92.1211,1.92,1.92"/><path class="a" d="M27.994,27.691H24.3968s-1.92.1211-1.92,1.92"/></svg>
